wardrobe-outline.svg

<svg  viewBox="0 0 24 24" fill="currentColor"><path  d="M6 2C4.89 2 4 2.9 4 4V19C4 20.11 4.89 21 6 21V22H8V21H16V22H18V21C19.11 21 20 20.11 20 19V4C20 2.9 19.11 2 18 2H6M6 4H11V19H6V4M13 4H18V19H13V4M8 10V13H10V10H8M14 10V13H16V10H14Z"/></svg>

<svg fill="currentColor" viewBox="0 0 24 24"><path d="M6 2a2 2 0 0 0-2 2v15c0 1.11.89 2 2 2v1h2v-1h8v1h2v-1c1.11 0 2-.89 2-2V4a2 2 0 0 0-2-2zm0 2h5v15H6zm7 0h5v15h-5zm-5 6v3h2v-3zm6 0v3h2v-3z"/></svg>
